X:1
L:1/4
Q:1/4=90.00
M:4/4
I:linebreak $
K:C
V:1 treble
V:2 treble
V:3 bass
V:4 bass
V:1
 E2 E E | E2 E E | G2 F F | E2 E2 | c2 c c | B2 A G | G2 ^F2 | G2 G2 | E2 E E | E2 E E | G2 =F F | %11
 E2 E2 | c2 c c | B2 A G | G2 ^F2 | G2 G2 || z4 | z4 | c2 ^A ^A | =A2 G2 | =F2 G2 | E2 G G | %22
 A B c d | e2 d c | c2 B2 | c2 c2 || z4 | z4 | c2 ^A ^A | =A2 G2 | F2 G2 | E2 G G | A B c d | %33
 e2 d c | c2 B2 | c2 c2 | z2 c c | e2 c2 | z2 G G | A4 | G4 |] %41
V:2
 C2 C C | C2 C C | D2 B, B, | C2 C2 | E2 E E | D2 E E | D2 D2 | D2 D2 | C2 C C | C2 C C | %10
 D2 B, B, | C2 C2 | E2 E E | D2 E E | D2 D2 | D2 D2 || z4 | G2 F F | E2 G2 | F2 E2 | D2 D2 | %21
 C2 C C | C F E G | G2 F E | D3 F | E2 E2 | z4 | G2 F F | E2 G2 | F2 E2 | D2 D2 | C2 C C | %32
 C F E G | G2 F E | D3 F | E2 E2 | z2 E E | G2 E2 | z2 E E | F4 | E4 |] %41
V:3
 G,2 G, G, | G,2 G, G, | G,2 G, G, | G,2 G,2 | A,2 A, C | D2 C C | B,2 A, C | B,2 B,2 | G,2 G, G, | %9
 G,2 G, G, | G,2 G, G, | G,2 G,2 | A,2 A, C | D2 C C | B,2 A, C | B,2 B,2 || z4 | z4 | z4 | %19
 C2 ^A, ^A, | =A,2 G,2 | G,2 C C | A, D C B, | C2 B, C | A,2 G,2 | G,2 G,2 | z4 | z4 | z4 | %29
 C2 ^A, ^A, | =A,2 G,2 | G,2 C C | A, D C B, | C2 B, C | A,2 G,2 | G,2 G,2 | z2 C C | C2 G,2 | %38
 C3 C | C4 | C4 |] %41
V:4
 C,2 C, C, | C,2 C, C, | B,,2 G,, G,, | C,2 C,2 | A,,2 A,, A,, | B,,2 C, C, | D,2 D,2 | G,,2 G,,2 | %8
 C,2 C, C, | C,2 C, C, | B,,2 G,, G,, | C,2 C,2 | A,,2 A,, A,, | B,,2 C, C, | D,2 D,2 | G,,2 G,,2 || %16
 G,2 F, F, | E,2 D,2 | C,2 E,2 | F,2 C,2 | D,2 B,,2 | C,2 E, E, | F, D, A, G, | C2 G, A, | %24
 F,2 G,2 | C,2 C,2 | G,2 F, F, | E,2 D,2 | C,2 E,2 | F,2 C,2 | D,2 B,,2 | C,2 E, E, | F, D, A, G, | %33
 C2 G, A, | F,2 G,2 | C,2 C,2 | z2 C C | C2 C,2 | C,3 C, | F,4 | C,4 |] %41

